X: 288
T: Last of Harris
B: canberra pickers and fiddlers
B: tunes
M:C|
L:1/8
R: reel
Q: 1/4=100
K:G
V:1 
e3f edBc|dedB A2G2|D2 ED G2B2|ed B2 AG3|
e3f edBc|dBdB A2G2|D2 ED G2 Bd|ed BG AG-G2:|
|:g3 e dega|b2a2-a2[d2D2]|b2a2g2 de |gedB AG-G2:|]
% abcbook-tune_id 63da593486b69aab3e1c9008
% abcbook-tune_composer_id 
% abcbook-link-0 https://www.youtube.com/watch?v=yYyDUnIop1Y
% abcbook-link-end-at-0 147
% abcbook-boost 0
% abcbook-difficulty 6
% abcbook-tags canberra pickers and fiddlers,old time tunes,© free
% abcbook-tablature 
% abcbook-transpose 
% abcbook-tuning GDAD
% abcbook-lastupdated 1691445427009
% abcbook-src-url https://tunebook.net/scrape/tunes.abc
% abcbook-soundfonts 
% abcbook-repeats 1
%%gchordfont "itim-music,Itim" 20

